X: 6
T: The Dawn
R: reel
M: 4/4
L: 1/8
K: Amaj
A,2CE D2FA | E2GB A2cA | BEcE dEcE| BAGF EDCB, |A,2CE D2FA | E2GB A2ce | fefg afed | cABG A2 (3efg :|a2 ae fece | fbbg agfe | (3gab eg be gb | fedf e2 (3efg |a2 ae fece | fgaf eAce | fefg afed | cABG A2 :|


Tune 167	Setting 12805

